X:14010
T:Reavy's
R:reel
S:
H:
N:
D:Andy McGann/Paddy Reynolds
Z:Adrian Scahill
M:4/4
L:1/8
K:D
DFAd (3fgf ec|dcde fdAF|GFED CDEF|GBAF EA,CE|\
(3FED A,D FGA=c|BGBd cdeg|fggf edcd|1 eddc d2FE:|2 eddc d2eg||\
:fddc dfaf|gfed cdeg|fggf gfed|cABG AGFE|\
FDFA dAFA|GFGB edcB|Adfa geAc|eddc d2eg:||
